findly-builder/apps/searchassist/src/assets/icons/refresh-secondary.svg

<svg width="8" height="9" viewBox="0 0 8 9" fill="none" xmlns="http://www.w3.org/2000/svg">
<path d="M3.84902 0.19887C3.72161 0.0937564 3.53275 0.100828 3.41361 0.220043L3.39259 0.24318C3.28747 0.370589 3.29455 0.559453 3.41376 0.67859L4.01867 1.28312C1.93502 1.29902 0.25 2.99276 0.25 5.079C0.25 7.17511 1.951 8.875 4.04826 8.875C6.14553 8.875 7.84652 7.17511 7.84652 5.079C7.84652 4.89993 7.70135 4.75476 7.52228 4.75476C7.34321 4.75476 7.19804 4.89993 7.19804 5.079C7.19804 6.81687 5.78747 8.22652 4.04826 8.22652C2.30905 8.22652 0.898484 6.81687 0.898484 5.079C0.898484 3.35165 2.29204 1.94855 4.01674 1.93164L3.41376 2.5344L3.39272 2.55752C3.28753 2.68486 3.29447 2.87373 3.41361 2.99294C3.54019 3.11961 3.74549 3.11968 3.87216 2.99309L5.03016 1.83584L5.05121 1.81271C5.15645 1.68531 5.14943 1.49634 5.03016 1.37715L3.87216 0.219893L3.84902 0.19887Z" fill="#9AA0A6"/>
</svg>

<svg width="8" height="9" fill="none" xmlns="http://www.w3.org/2000/svg"><path d="M3.849.199a.324.324 0 0 0-.435.021l-.021.023a.324.324 0 0 0 .02.436l.606.604A3.798 3.798 0 0 0 .25 5.08a3.798 3.798 0 0 0 7.597 0 .324.324 0 0 0-.649 0 3.15 3.15 0 0 1-6.3 0 3.15 3.15 0 0 1 3.119-3.147l-.603.602-.021.024a.324.324 0 0 0 .48.435L5.03 1.836l.021-.023a.324.324 0 0 0-.02-.436L3.871.22 3.85.199Z" fill="#9AA0A6"/></svg>
